src/icons/outline/media/folder.svg

<svg width="24" height="24" viewBox="0 0 24 24" fill="none" xmlns="http://www.w3.org/2000/svg">
<g clip-path="url(#clip0_4488_342)">
<path d="M22.5725 9.71445C22.134 9.03512 21.3996 8.62061 20.6323 8.62061V7.45769C20.6323 6.13356 19.6129 5.06275 18.3523 5.06275H10.2516L8.74988 2.95567C8.32237 2.35694 7.64275 2 6.93024 2H3.28002C2.01943 2 1 3.07081 1 4.39493V19.6051C1 20.9292 2.01943 22 3.28002 22H18.3523C18.4509 22 18.5386 21.977 18.6373 21.9655C18.6482 21.9655 18.6702 21.9655 18.6811 21.9655C19.5909 21.8273 20.3254 21.1249 20.5556 20.2153C20.5556 20.2153 20.5556 20.2038 20.5556 20.1923L22.9013 11.9252C23.1206 11.1652 23 10.3592 22.5835 9.71445H22.5725ZM3.28002 3.72712H6.93024C7.12755 3.72712 7.32486 3.83074 7.43448 3.99194L9.18834 6.44444C9.3418 6.66321 9.58296 6.78987 9.84604 6.78987H18.3523C18.703 6.78987 18.988 7.08923 18.988 7.45769V8.6091H5.7135C4.66119 8.6091 3.75137 9.33448 3.44444 10.4168L2.64425 13.2493V4.39493C2.64425 4.02648 2.92925 3.72712 3.28002 3.72712ZM21.3229 11.4301L18.9771 19.6972C18.8784 20.0426 18.6044 20.2729 18.2865 20.2729H3.37867C3.14848 20.2729 2.92925 20.1462 2.78675 19.939C2.64425 19.7202 2.61136 19.4554 2.67713 19.1906L5.02292 10.9234C5.12157 10.578 5.39562 10.3477 5.7135 10.3477H20.6213C20.8515 10.3477 21.0708 10.4744 21.2133 10.6816C21.3558 10.9004 21.3886 11.1652 21.3229 11.4301Z" fill="#3C3B44"/>
</g>
<defs>
<clipPath id="clip0_4488_342">
<rect width="24" height="24" fill="white"/>
</clipPath>
</defs>
</svg>

<svg xmlns="http://www.w3.org/2000/svg" width="24" height="24" fill="none" viewBox="0 0 24 24"><g clip-path="url(#a)"><path fill="currentColor" d="M22.573 9.714c-.439-.679-1.173-1.093-1.94-1.093V7.458c0-1.324-1.02-2.395-2.28-2.395h-8.101L8.75 2.956A2.25 2.25 0 0 0 6.93 2H3.28C2.02 2 1 3.07 1 4.395v15.21C1 20.93 2.02 22 3.28 22h15.072c.099 0 .187-.023.285-.035h.044c.91-.138 1.644-.84 1.875-1.75v-.023l2.345-8.267c.22-.76.099-1.566-.317-2.21zM3.28 3.727h3.65c.198 0 .395.104.504.265l1.754 2.452a.8.8 0 0 0 .658.346h8.506c.351 0 .636.3.636.668v1.151H5.714c-1.053 0-1.963.725-2.27 1.808l-.8 2.832V4.395c0-.369.285-.668.636-.668m18.043 7.703-2.346 8.267c-.099.346-.373.576-.69.576H3.379a.73.73 0 0 1-.592-.334.94.94 0 0 1-.11-.748l2.346-8.268c.099-.345.373-.575.69-.575h14.908c.23 0 .45.126.592.334a.94.94 0 0 1 .11.748"/></g><defs><clipPath id="a"><path fill="currentColor" d="M0 0h24v24H0z"/></clipPath></defs></svg>
